X:114
T: Als ich vor vielen Jahren (1-40), S. 104
N: K1088
O: Luxemburg
S: KINTZELE, Guillaume: An der Ucht, Bd. 1, Luxemburg 1926]
N: in der Quelle mit einer 2. Stimme versehen
R: Verfhrung, Beischlaf?]
M: 3/4
L: 1/8
K: D
AF | d3AGF | EFE2
cd | e3dcB | AdA2
BB | B2dBAd | A3z
FD | A3FGA | F2z2
BB | B2dBAd | A3z
FD | A3FGA | F2z2

